X:223
T:Maud Millar
Z: id:dc-reel-204
M:C
L:1/8
K:E Dorian
gf|edBA GEDE|G2BG DGBd|eBdB A2GA|Beed e2:|!
ge|dega bgg2|aee2 gee2|dega bgg2|aged eage|!
dega bgg2|aee2 g3a|bgaf gfed|Beed e2|]!

